!!!SOCIAL_FUNCTION: war songs
!!!PDT:	1929
!!!LING_GROUP: Caddoan
!!!LANG: Non-Tone
!!!REG: Oklahoma
!!!COM: Anon.
!!!OTL: Song for Returned Pawnee Soldiers
!!!ODT: <1920//
!!!MPN: Laduda desadu [He does everything as a chief, John Luwak]
!!!MLC: Pawnee, Oklahoma, United States of America
!! Song was recorded either 1919 or 1920.
!!!AGN: monody
!!!AMT: irregular
!!!RWG: Transcribed pitches, durations, and meters are only approximate.
!! Drum Tempo:  MM76
!! Drum-rhythm: (8 8 8 8 8 8)
**kern
*ICvox
*Imale
*clefF4
*k[b-]
*[A,A]
*>A
*M2/4
*MM76
16f
=1
8f
16c
16c
4f
=2
4c
8.A
16f
*M3/4
=3
8f
16c
16c
4c
8.A
16F
*M2/4
=4
4F
8.F
16B-
*M3/4
=5
8B-
16G
16G
4B-
8.G
16F
*M2/4
=6
16F
8.F
8F
8F
=7
4..F
==:|!
*-
!!!HAO: [no free translation]
!!!HTX: You are coming.
!!!HTX: You are the ones for whom I am looking.
!!!CNT: Pawnee
!!!TXO: Pawnee
!!!OCY: United States
!!!OCL: Frances Densmore
!!!YOR: Frances Densmore, "Pawnee Music"
!!!YOR: Bulletin 93, page 66, No. 36
!!!PPR: Smithsonian Institution, Bureau of American Ethnology
!!!PPR: Government Printing Office
!!!PDT: 1926
!!!PPP: Washington, DC, United States of America
!!!YEC: Electronic Copyright 2000 David Huron
!!!YER: September 2000
!!!YEN: United States of America
!!!ENC: David Huron
!!!RDT: September 3, 2000
!!!EEV: Release 1.0
!!!AIN: tom, vox
